X:1
T:Title
L:1/8
Q:1/4=100
M:4/4
K:Eb
V:1 treble nm="Grand Piano"
V:1
 G2 EE D2 CC | G2 A2 D4 | D2 E2 F2 GG | B2 A2 G4- | G F2 G A2 F2 | EDEF G2 E2- | EDDE F2 G2 | %7
w: ????~????? * * * * *|||||||
 EDC=B, C4 | edc=B c2 e2 | c2 =Bc d2 c2 | dcB=A B2 B2- | BAAB c2 G2 | edc=B c2 ef | d2 =Bc d2 c2 | %14
w: |||||||
 dcB=A B2 B2- | BAAB c2 G2- | GFFG A3 F | EDEF G2 E2- | EDDE F2 G2 | A2 c=B A2 G2 | GFFG A3 F | %21
w: |||||||
 EDEF G2 E2- | EDDE F2 G2 | EDC=B, D2 C2 |] %24
w: |||

